X:38
T:Blackberry Blossom, The
S:Mary Bergin
D:Feadga Stin, Shanachie 79006
N:Transcribed by Alan Ng without cuts, tongues or breaths
Z: id:ng-reels-38 transcribed by Alan Ng agng@students.wisc.edu July 27, 2000
R:reel
M:C|
K:G
g3e||dBAc B~G3|dBBA B2ge|dBAc B~G3|1e~a3 abge:|2e~a3 agea||\
~g3f gaba|~g3b agef|g2gf gaag|e~a3 agef|\
~g3d gaba|~g3b a2ga|agaf gfed|e~a3 abge|]**
